X:143
T:Padraig O'Keefe's
M:12/8
L:1/8
R:Slide
K:Eminor
dBA ABA d2B dBd|e2f gfe fed BAB|dBA ABA d2B d2e|1 f2b afd e3 d2e:|2 f2b afd e3 def|!
g2a bag f2g agf|e2f gfe fed BAB|dBA ABA d2B d2e|1 f2b afd e3 def:|2 f2b afd e3 d3|]

